(Created with emc2b post processor 2016/06/02 15:06)
(tool change to 3 mm Fraise à Rainurer)
T1 M06 G43
G17 G90 G21
G00 X12.5 Y122.5 S7000 M03
Z5
G83 Q1 G98 X12.5 Y122.5 Z-1 R2 F100
X70.5 Y122.5 
X119 Y118 
X149.5 Y198.5 
X193.5 Y198.5 
X193.5 Y67.5 
X149.5 Y67.5 
X92 Y6 
X70.5 Y73.5 
X12.5 Y73.5 
G80
(ENTITIES ext)
G00 X198 Y101 S7000 M03
Z2
G01 Z-1.75 F30
X198 Y202 F400
G03 X197 Y203 I-1 J0 
G01 X146 Y203 
X139 Y203 
G03 X138 Y202 I0 J-1 
G01 X138 Y136 
X0 Y136 
G03 X-1 Y135 I0 J-1 
G01 X-1 Y0 
G03 X0 Y-1 I1 J0 
G01 X197 Y-1 
G03 X198 Y0 I0 J1 
G01 X198 Y101 
Z-3.5 F30
X198 Y202 F400
G03 X197 Y203 I-1 J0 
G01 X146 Y203 
X139 Y203 
G03 X138 Y202 I0 J-1 
G01 X138 Y136 
X0 Y136 
G03 X-1 Y135 I0 J-1 
G01 X-1 Y0 
G03 X0 Y-1 I1 J0 
G01 X197 Y-1 
G03 X198 Y0 I0 J1 
G01 X198 Y101 
G00 Z5
T0 M06 M02
